X:462
T:Lord Nelson’s Hornpipe. RH.462
R:.hornpipe
S:Rev.R.Harrison’s MS,c1815,Cumbria
O:England
A:Temple Sowerby,Cumbria
Z:vmp.Simon Wilson. Review PJH, 2008.
M:C
L:1/8
Q:2/4=90
K:D
d2de f2fg|a2d’2 b2a2|bagf gfed|B2ed dcBA|!
B2Bc d2de|a2d’2 b2a2|d’c’ba fa^gb|a2a2 a4:|!
|:b3c’ d’c’ba|bagf gfed|cABc d3e|fgfe dcBA|!
d2df f2fg|a2d’2 b2a2|gfed Bdce|d2d2 d4:|

